X:34
T:The New Potatoes
C:O'Reilly
M:C/
L:1/8
Q:1/4=60
K:G
|: (EB)(BA F)AFA | (EB)(BA F)D E2 | (EB)(BA F)AFA | (BA)(dA) FD HE2 :|
(Be)(eg) fded | (Be)(eg) fd d2 | (Be)(eg) fded | BAdA FD E2 |
(Be)(eg) fded | Beeg fd d2 | bgaf gfed | BA dA FDD3 ||

% From O'Niell's Music of Ireland
